svg/300/sharp/vrpano.svg

<svg xmlns="http://www.w3.org/2000/svg" width="48" height="48" viewBox="0 -960 960 960"><path d="M145.385-234.308q81.231-27.077 165.192-39.066Q394.539-285.363 480-285.363t169.423 11.989q83.961 11.989 165.192 39.066v-489.999q-81.231 26.461-165.192 38.077Q565.461-674.615 480-674.615T310.577-686.23q-83.961-11.616-165.192-38.077v489.999Zm-45.384 64.306v-619.227q57.001 21.462 154.616 45.731Q352.231-719.229 480-719.229q127.384 0 225.191-24.269t154.808-45.731v619.227q-57.001-21.462-154.808-45.346Q607.384-239.232 480-239.232q-127.769 0-225.383 23.884-97.615 23.884-154.616 45.346ZM480-479.615Zm-235.537 126.46q58.487-6.846 117.32-11.076 58.833-4.231 118.217-4.231t118.217 4.231q58.833 4.23 117.32 11.076L565.692-543.461 447.846-394.846 362.77-502.23 244.463-353.155Z"/></svg>

<svg xmlns="http://www.w3.org/2000/svg" width="48" height="48" viewBox="0 -960 960 960"><path d="M145.39-234.31q81.23-27.08 165.19-39.06 83.96-11.99 169.42-11.99t169.42 11.99q83.96 11.98 165.19 39.06v-490q-81.23 26.46-165.19 38.08-83.96 11.62-169.42 11.62t-169.42-11.62q-83.96-11.62-165.19-38.08v490ZM100-170v-619.23q57 21.46 154.62 45.73 97.61 24.27 225.38 24.27 127.38 0 225.19-24.27T860-789.23V-170q-57-21.46-154.81-45.35-97.81-23.88-225.19-23.88-127.77 0-225.38 23.88Q157-191.46 100-170Zm380-309.62ZM244.46-353.15q58.49-6.85 117.32-11.08 58.84-4.23 118.22-4.23 59.38 0 118.22 4.23 58.83 4.23 117.32 11.08L565.69-543.46 447.85-394.85l-85.08-107.38-118.31 149.08Z"/></svg>
